svg/emoji_u1f5f3.svg

<svg width="128" height="128" viewBox="0 0 128 128" fill="none" xmlns="http://www.w3.org/2000/svg">
<path d="M66.1296 68.34L122.17 39.11C122.17 39.11 122.19 38.37 122.17 37.85L59.8596 10.83C59.6096 10.72 59.3196 10.73 59.0696 10.86L4.88957 39.52C4.67957 39.63 4.55957 39.84 4.55957 40.07V93.02C4.55957 93.64 4.90957 94.21 5.44957 94.49C6.00957 94.78 6.56957 95.07 7.12957 95.36C8.64957 96.14 63.0796 124.63 64.8796 123.98C65.4096 123.79 65.8096 123.43 66.1296 123V68.34Z" fill="#1976D2" style="fill:#1976D2;fill:color(display-p3 0.0980 0.4627 0.8235);fill-opacity:1;"/>
<path d="M64.6997 67.32C71.3497 64.11 122.25 39.54 122.17 37.85L59.8197 10.81C59.5897 10.71 59.3297 10.72 59.0997 10.84L4.86972 39.53C4.73972 39.6 4.73972 39.79 4.87972 39.85L63.2597 67.32C63.7197 67.53 64.2397 67.53 64.6997 67.32Z" fill="#039BE5" style="fill:#039BE5;fill:color(display-p3 0.0118 0.6078 0.8980);fill-opacity:1;"/>
<path d="M122.72 94.41L65.9595 123.67C65.0595 124.13 63.9995 123.48 63.9995 122.47V68.93C63.9995 67.66 64.8495 67.2 65.2995 66.97L121.48 38C122.38 37.54 123.44 37.85 123.44 39.2V93.22C123.45 93.72 123.17 94.18 122.72 94.41Z" fill="#0D47A1" style="fill:#0D47A1;fill:color(display-p3 0.0510 0.2784 0.6314);fill-opacity:1;"/>
<path d="M74.8896 46.1L42.6396 29.99L48.6896 26.98L80.9397 43.09L74.8896 46.1Z" fill="#212121" style="fill:#212121;fill:color(display-p3 0.1294 0.1294 0.1294);fill-opacity:1;"/>
<path d="M78.2294 41.74L54.4194 29.84C54.4194 29.84 59.7594 24.89 71.8194 18.51C72.2694 18.27 74.4894 16.98 74.9694 17.23L103.239 29.53C91.7394 30.99 78.2294 41.74 78.2294 41.74Z" fill="#0D47A1" style="fill:#0D47A1;fill:color(display-p3 0.0510 0.2784 0.6314);fill-opacity:1;"/>
<path d="M48.6896 28.78L79.1296 43.98L80.9397 43.09L48.6896 26.98L42.6396 29.99L44.4396 30.89L48.6896 28.78Z" fill="#0D47A1" style="fill:#0D47A1;fill:color(display-p3 0.0510 0.2784 0.6314);fill-opacity:1;"/>
<path d="M98.9599 17.94C87.3099 25.05 72.4299 44.87 72.4299 44.87L47.6299 32.48C47.6299 32.48 60.7799 10.94 76.1499 4.15002C76.6099 3.95002 77.1599 3.93002 77.6399 4.19002L98.8199 15.39C99.8999 15.96 99.9399 17.34 98.9599 17.94Z" fill="#EBB855" style="fill:#EBB855;fill:color(display-p3 0.9208 0.7212 0.3338);fill-opacity:1;"/>
<path opacity="0.7" d="M63.9798 74.86L4.5498 46.9V49.09L63.9798 77.05L64.4098 76.85L63.9798 74.86Z" fill="#0D47A1" style="fill:#0D47A1;fill:color(display-p3 0.0510 0.2784 0.6314);fill-opacity:1;"/>
<path d="M64 74.85V77.04L123.45 46.54V44.31L64 74.85Z" fill="#0A3160" style="fill:#0A3160;fill:color(display-p3 0.0392 0.1922 0.3765);fill-opacity:1;"/>
<path d="M39.2397 48.13C39.2397 44.65 41.3097 43.99 43.8697 43.99C46.4297 43.99 48.4997 44.8 48.4997 48.13C48.4997 49.67 46.4297 50.91 43.8697 50.91C41.3097 50.91 39.2397 49.67 39.2397 48.13Z" fill="#616161" style="fill:#616161;fill:color(display-p3 0.3804 0.3804 0.3804);fill-opacity:1;"/>
<path d="M43.8697 49.43C46.3108 49.43 48.2897 48.1853 48.2897 46.65C48.2897 45.1146 46.3108 43.87 43.8697 43.87C41.4286 43.87 39.4497 45.1146 39.4497 46.65C39.4497 48.1853 41.4286 49.43 43.8697 49.43Z" fill="#E0E0E0" style="fill:#E0E0E0;fill:color(display-p3 0.8784 0.8784 0.8784);fill-opacity:1;"/>
</svg>

<?xml version="1.0" encoding="utf-8"?>
<!-- Generator: Adobe Illustrator 25.2.3, SVG Export Plug-In . SVG Version: 6.00 Build 0)  -->
<svg version="1.1" id="Layer_3" xmlns="http://www.w3.org/2000/svg" xmlns:xlink="http://www.w3.org/1999/xlink" x="0px" y="0px"
	 viewBox="0 0 128 128" style="enable-background:new 0 0 128 128;" xml:space="preserve">
<g>
	<g>
		<path style="fill:#1976D2;" d="M66.13,68.34l56.04-29.23c0,0,0.02-0.74,0-1.26L59.86,10.83c-0.25-0.11-0.54-0.1-0.79,0.03
			L4.89,39.52c-0.21,0.11-0.33,0.32-0.33,0.55l0,52.95c0,0.62,0.35,1.19,0.89,1.47c0.56,0.29,1.12,0.58,1.68,0.87
			c1.52,0.78,55.95,29.27,57.75,28.62c0.53-0.19,0.93-0.55,1.25-0.98V68.34z"/>
	</g>
	<g>
		<path style="fill:#039BE5;" d="M64.7,67.32c6.65-3.21,57.55-27.78,57.47-29.47L59.82,10.81c-0.23-0.1-0.49-0.09-0.72,0.03
			L4.87,39.53c-0.13,0.07-0.13,0.26,0.01,0.32l58.38,27.47C63.72,67.53,64.24,67.53,64.7,67.32z"/>
		<g>
			<g>
				<path style="fill:#0D47A1;" d="M122.72,94.41l-56.76,29.26c-0.9,0.46-1.96-0.19-1.96-1.2V68.93c0-1.27,0.85-1.73,1.3-1.96
					L121.48,38c0.9-0.46,1.96-0.15,1.96,1.2v54.02C123.45,93.72,123.17,94.18,122.72,94.41z"/>
			</g>
			<g>
				<polygon style="fill:#212121;" points="74.89,46.1 42.64,29.99 48.69,26.98 80.94,43.09 				"/>
			</g>
			<path style="fill:#0D47A1;" d="M78.23,41.74L54.42,29.84c0,0,5.34-4.95,17.4-11.33c0.45-0.24,2.67-1.53,3.15-1.28l28.27,12.3
				C91.74,30.99,78.23,41.74,78.23,41.74z"/>
			<polygon style="fill:#0D47A1;" points="48.69,28.78 79.13,43.98 80.94,43.09 48.69,26.98 42.64,29.99 44.44,30.89 			"/>
			<path style="fill:#DFECF5;" d="M98.96,17.94c-11.65,7.11-26.53,26.93-26.53,26.93l-24.8-12.39c0,0,13.15-21.54,28.52-28.33
				c0.46-0.2,1.01-0.22,1.49,0.04l21.18,11.2C99.9,15.96,99.94,17.34,98.96,17.94z"/>
		</g>
		<polygon style="opacity:0.7;fill:#0D47A1;" points="63.98,74.86 4.55,46.9 4.55,49.09 63.98,77.05 64.41,76.85 		"/>
		<polygon style="fill:#0A3160;" points="64,74.85 64,77.04 123.45,46.54 123.45,44.31 		"/>
	</g>
	<path style="fill:#616161;" d="M39.24,48.13c0-3.48,2.07-4.14,4.63-4.14s4.63,0.81,4.63,4.14c0,1.54-2.07,2.78-4.63,2.78
		S39.24,49.67,39.24,48.13z"/>
	<ellipse style="fill:#E0E0E0;" cx="43.87" cy="46.65" rx="4.42" ry="2.78"/>
</g>
</svg>
